X: 1
T:La Marianne
M:3/4
L:1/4
K:G
||GBG|d3|cec|BA2|
GBG|d3|cBA|G3|
GBG|d3|cec|BA2|
GBG|d3|c B/2c/2 B/2c/2|d3.>|
|:c e/2c/2 A/2c/2|B d/2B/2 G/2B/2|A c/2A/2 F/2A/2|G B/2G/2 d/2G/2|
c e/2c/2 A/2c/2|G d/2B/2 G/2B/2|A c/2A/2 F/2A/2|G3:|
